www/assets/icons/auto_fix_high.svg

<svg width="24" height="24" viewBox="0 0 24 24" xmlns="http://www.w3.org/2000/svg" fill='currentColor'><path d="M8.00128 5.09878L10.5013 6.49878L9.10128 3.99878L10.5013 1.49878L8.00128 2.89878L5.50128 1.49878L6.90128 3.99878L5.50128 6.49878L8.00128 5.09878ZM20.0013 14.8988L17.5013 13.4988L18.9013 15.9988L17.5013 18.4988L20.0013 17.0988L22.5013 18.4988L21.1013 15.9988L22.5013 13.4988L20.0013 14.8988ZM22.5013 1.49878L20.0013 2.89878L17.5013 1.49878L18.9013 3.99878L17.5013 6.49878L20.0013 5.09878L22.5013 6.49878L21.1013 3.99878L22.5013 1.49878ZM14.8713 6.78878C14.4813 6.39878 13.8513 6.39878 13.4613 6.78878L1.79128 18.4588C1.40128 18.8488 1.40128 19.4788 1.79128 19.8688L4.13128 22.2088C4.52128 22.5988 5.15128 22.5988 5.54128 22.2088L17.2013 10.5488C17.5913 10.1588 17.5913 9.52878 17.2013 9.13878L14.8713 6.78878ZM13.8413 12.2788L11.7213 10.1588L14.1613 7.71878L16.2813 9.83878L13.8413 12.2788Z"/></svg>

<svg xmlns="http://www.w3.org/2000/svg" width="24" height="24" viewBox="0 0 24 24" fill='currentColor'><path d="m8.001 5.099 2.5 1.4-1.4-2.5 1.4-2.5-2.5 1.4-2.5-1.4 1.4 2.5-1.4 2.5zm12 9.8-2.5-1.4 1.4 2.5-1.4 2.5 2.5-1.4 2.5 1.4-1.4-2.5 1.4-2.5zm2.5-13.4-2.5 1.4-2.5-1.4 1.4 2.5-1.4 2.5 2.5-1.4 2.5 1.4-1.4-2.5zm-7.63 5.29a.996.996 0 0 0-1.41 0l-11.67 11.67a.996.996 0 0 0 0 1.41l2.34 2.34c.39.39 1.02.39 1.41 0l11.66-11.66a.996.996 0 0 0 0-1.41zm-1.03 5.49-2.12-2.12 2.44-2.44 2.12 2.12z"/></svg>
